!!!!SEGMENT: pl-kk--kk-i-389--005-005_anonim--missa-no-5-sanctus.krn
!!!cenid: 17xx:2488
!!!COM: Anonim
!!!COM-rismID: pe30004985
!!!CDT:
!!!CNT:
!!!OPR: [Missa] No. 5.
!!!OTL: Sanctus
!!!OMV: 005
!!!PDT:
!!!AGN: Sacred; Mass
!!!YEC: Copyright 2022 Narodowy Instytut Fryderyka Chopina (https://polishscores.org)
!!!YEM: License CC-BY-4.0 (https://creativecommons.org/licenses/by/4.0)
!!!SMS-siglum: PL-Kk
!!!SMS-shelfmark: Kk.I.389
!!!SMS-variant:
!!!SMS-altvar:
!!!SMS-shelfwork: 005-005 M
!!!NIFC-rismSourceID: 1001146182
!!!NIFC-rismChildID: 1001146646
!!!NIFC-islandoraID: pl-kk:6976
!!!URL-pdf-islandora: https://repozytorium.nifc.pl/islandora/object/pl-kk%3A6976/datastream/PDF/view
!!!URL-scan: https://polish.musicsources.pl/pl/lokalizacje/galeria/rekopisy/5999/1 @EN{Scan on Polish Music Sources Website} @PL{Skany w portalu Dziedzictwo Muzyki Polskiej w otwartym dostępie}
!!!IIIF:
!!!ONB-nifc: UWAGA: S – skan 9-10, A – 28-29 , T – 47-48 , B – 66-67 . Części Mszy: Rorate, Kyrie, Gloria, Graduale, Sanctus, Benedictus, Agnus.
!!!AIN: 1 alto 1 bass 1 soprn 1 tenor
!!!key: C
**kern	**text	**kern	**text	**kern	**text	**kern	**text
*part4	*part4	*part3	*part3	*part2	*part2	*part1	*part1
*staff4	*staff4	*staff3	*staff3	*staff2	*staff2	*staff1	*staff1
*I"Basso.	*	*I"Tenore.	*	*I"Alto.	*	*I"Soprano.	*
*I'[B]	*	*I'[T]	*	*I'[A]	*	*I'[S]	*
*ICvox	*	*ICvox	*	*ICvox	*	*ICvox	*
*Ibass	*	*Itenor	*	*Ialto	*	*Isoprn	*
*clefF4	*	*clefC4	*	*clefC3	*	*clefC1	*
*k[]	*	*k[]	*	*k[]	*	*k[]	*
*C:	*	*C:	*	*C:	*	*C:	*
*M2/2	*	*M2/2	*	*M2/2	*	*M2/2	*
*met(C.|)	*	*met(C|)	*	*met(C.|)	*	*met(C.|)	*
=1	=1	=1	=1	=1	=1	=1	=1
!!LO:TX:t=P:problem:all\right	!	!	!	!	!	!	!
4C\	San-	4E/	San-	1g	San-	1ee	San-
4D\	.	4F/	.	.	.	.	.
4E\	.	4G/	.	.	.	.	.
4F\	.	4A/	.	.	.	.	.
=2	=2	=2	=2	=2	=2	=2	=2
4G\	.	4B\	.	1g	-ctus	1dd	.
4A\	.	4c\	.	.	.	.	.
4B\	.	4d\	.	.	.	.	.
4G\	.	4B\	-ctus	.	.	.	.
=3	=3	=3	=3	=3	=3	=3	=3
4c\	.	4e\	San-	1g	San-	1ee	.
4G\	.	4d\	.	.	.	.	.
*	*	*2\right	*	*	*	*	*
4E\	.	2c\	.	.	.	.	.
4C\	.	.	.	.	.	.	.
=4	=4	=4	=4	=4	=4	=4	=4
*2\right	*	*	*	*2\right	*	*2\right	*
2G\	-ctus,	2B\	-ctus	2g\	-ctus,	2dd\	-ctus,
2r	.	2r	.	2r	.	2r	.
=5	=5	=5	=5	=5	=5	=5	=5
4G\	San-	4B\	San-	1g	San-	1dd	San-
4A\	.	4c\	.	.	.	.	.
4B\	.	4d\	.	.	.	.	.
4G\	.	4B\	.	.	.	.	.
=6	=6	=6	=6	=6	=6	=6	=6
4A\	.	1c	-ctus	1f#X	.	1dd	.
4B\	.	.	.	.	.	.	.
4c\	.	.	.	.	.	.	.
4A\	.	.	.	.	.	.	.
!LO:LB:g=original	!	!	!	!	!	!	!
=7	=7	=7	=7	=7	=7	=7	=7
4B\	.	1G	San-	1fn	.	1dd	.
4c\	.	.	.	.	.	.	.
4d\	.	.	.	.	.	.	.
4B\	.	.	.	.	.	.	.
=8	=8	=8	=8	=8	=8	=8	=8
2c\	-ctus	2G/	-ctus	2e\	-ctus,	2cc\	-ctus
!	!	!LO:LB:g=original	!	!	!	!	!
4c\	San-	4G/	San-	4e\	san-	4ee\	san-
4B\	-ctus	4G#X/	-ctus	4f\	-ctus	4dd\	-ctus
=9	=9	=9	=9	=9	=9	=9	=9
4.A\	Do-	4.A\	Do-	4.e\	Do-	4.cc\	Do-
8A\	.	8A\	-mi-	8e\	-mi-	8cc\	-mi-
2G#X\	-nus	2B\	-nus	2e\	-nus	2dd\	-nus
!	!	!	!	!LO:LB:g=original	!	!LO:LB:g=original	!
=10	=10	=10	=10	=10	=10	=10	=10
4A\	De-	2A\	De-	2e\	De-	2cc\	De-
4E\	.	.	.	.	.	.	.
4C/	.	2A\	-us	2e\	-us,	2cc\	-us
4AA/	-us	.	.	.	.	.	.
=11	=11	=11	=11	=11	=11	=11	=11
4D/	sa-	2A/	sa-	2f\	sa-	2.dd\	sa-
4BB/	.	.	.	.	.	.	.
4E\	.	2G#X/	-ba-	4e\	.	.	.
4E\	-ba-	.	.	4e\	-ba-	4b\	-ba-
=12	=12	=12	=12	=12	=12	=12	=12
4AA/	-ot	4A/	-ot,	4e\	-ot,	4cc\	-ot,
4C/	Ple-	4Gn/	Ple-	4g\	Ple-	4ee\	ple-
4BB/	-ni	4G/	-ni	4f\	-ni	4dd\	-ni
4C/	sunt	4G/	sunt	4e\	sunt	4cc\	sunt
=13	=13	=13	=13	=13	=13	=13	=13
2G\	ce-	2G/	ce-	2d\	ce-	2b\	ce-
4G\	-li	4G/	-li	4d\	-li	4b\	-li
4G\	et	4G/	et	8d\L	et	8b\L	et
.	.	.	.	8e\J	.	8cc\J	.
!LO:LB:g=original	!	!	!	!	!	!	!
=14	=14	=14	=14	=14	=14	=14	=14
4G\	ter-	1G	ter-	2f\	ter-	2dd\	ter-
8A\L	.	.	.	.	.	.	.
8B\J	.	.	.	.	.	.	.
4c\	.	.	.	4g\	.	4ee\	.
4G\	.	.	.	4f\	.	4dd\	.
=15	=15	=15	=15	=15	=15	=15	=15
2C/	-ra,	2G/	-ra	2e\	-ra	2cc\	-ra,
2C/	glo-	2c\	glo-	2g\	glo-	2ee\	glo-
=16	=16	=16	=16	=16	=16	=16	=16
2BB/	.	2G/	.	2f\	.	2dd\	.
4C/	-ri-	4G/	ri-	4e\	-ri-	4cc\	-ri-
4C/	-a	4G/	-a	4e\	-a	4cc\	-a
=17	=17	=17	=17	=17	=17	=17	=17
4GG/	tu-	4G/	tu-	4d\	tu-	4b\	tu-
4GG/	-a	4G/	-a	4d\	-a	4b\	-a
!	!	!LO:LB:g=original	!	!LO:LB:g=original	!	!	!
2BB/	glo-	2B\	glo-	2a\	glo-	2ff\	glo-
!	!	!	!	!	!	!LO:LB:g=original	!
=18	=18	=18	=18	=18	=18	=18	=18
2C/	.	2c\	.	2g\	.	2ee\	.
4BB/	-ri-	4B\	-ri-	4f\	-ri-	4dd\	-ri-
4GG/	-a	4B\	-a	4f\	-a	4dd\	-a
=19	=19	=19	=19	=19	=19	=19	=19
4C/	glo-	2.G/	glo-	4e\	glo-	4cc\	glo-
4D/	.	.	.	4f\	.	4b\	.
4E\	.	.	.	4g\	.	2cc\	.
4F\	.	4F/	.	4a\	.	.	.
=20	=20	=20	=20	=20	=20	=20	=20
2E\	.	2G/	.	2g\	.	2cc\	.
4D\	-ri-	4G/	-ri-	4f\	-ri-	4b\	-ri-
4C/	-a	4G/	-a	4e\	-a	4cc\	-a
=21	=21	=21	=21	=21	=21	=21	=21
!LO:TX:a:t=2	!	!	!	!	!	!	!
0G	tu-	1G	tu-	2d\	tu-	2b\	tu-
.	.	.	.	2e\	-a	2cc\	.
=22	=22	=22	=22	=22	=22	=22	=22
.	.	1G	.	2e\	tu-	2cc\	.
.	.	.	.	2d\	.	2b\	.
=23	=23	=23	=23	=23	=23	=23	=23
1C	-a	1G	-a	1e	-a.	1cc	-a.
!LO:LB:g=original	!	!	!	!LO:LB:g=original	!	!	!
=24||	=24||	=24||	=24||	=24||	=24||	=24||	=24||
*clefF4	*	*	*	*clefC3	*	*	*
*M2/2	*	*M2/2	*	*M2/2	*	*M2/2	*
*met(C.|)	*	*met(C.|)	*	*met(C.|)	*	*met(C.|)	*
4C/	O-	1G	O-	1e	O-	1cc	O-
4c\	.	.	.	.	.	.	.
4G\	.	.	.	.	.	.	.
4E\	.	.	.	.	.	.	.
=25	=25	=25	=25	=25	=25	=25	=25
4G\	-san-	2B\	-san-	2g\	-san-	2dd\	-san-
4d\	.	.	.	.	.	.	.
4B\	-na	4B\	-na	4g\	-na	4dd\	-na
4G\	O-	4B\	O-	4g\	O-	4dd\	o-
!	!	!	!	!	!	!LO:LB:g=original	!
=26	=26	=26	=26	=26	=26	=26	=26
4c\	-san-	4c\	-san-	4g\	-san-	4ee\	-san-
4G\	-na	4B\	-na	4g\	-na	4dd\	-na
4E\	in	4c\	in	4g\	in	4ee\	in
4C/	ex-	8d\L	ex-	4g\	ex-	8ff\L	ex-
.	.	8c\J	.	.	.	8ee\J	.
!	!	!LO:LB:g=original	!	!	!	!	!
=27	=27	=27	=27	=27	=27	=27	=27
4G\	-cel-	4c\	-cel-	4g\	-cel-	4ee\	-cel-
4GG/	-sis	4B\	-sis	4g\	-sis	4dd\	-sis,
4r	.	4r	.	4r	.	4r	.
4G\	O-	8B\L	o-	4g\	O-	8dd\L	o-
.	.	8c\J	.	.	.	8ee\J	.
=28	=28	=28	=28	=28	=28	=28	=28
4G\	-san-	2d\	-san-	2g\	-san-	2ff\	-san-
4A\	.	.	.	.	.	.	.
4B\	.	2B\	-na	2g\	-na	2dd\	-na
4G\	-na	.	.	.	.	.	.
=29	=29	=29	=29	=29	=29	=29	=29
4c\	in	2G/	in	4g\	in	4ee\	in
4G\	.	.	.	4f\	.	4dd\	.
4E\	.	2G/	ex-	4e\	.	4cc\	.
4D\	ex-	.	.	4f\	ex-	4dd\	ex-
=30	=30	=30	=30	=30	=30	=30	=30
4C\	-cel-	1G	-cel-	2e\	-cel-	2cc\	-cel-
4E\	.	.	.	.	.	.	.
4G\	.	.	.	2d\	.	2b\	.
4GG/	.	.	.	.	.	.	.
!	!	!	!	!LO:LB:g=original	!	!	!
=31	=31	=31	=31	=31	=31	=31	=31
2C/	-sis	2G/	-sis,	2e\	-sis,	2cc\	-sis,
!LO:LB:g=original	!	!	!	!	!	!	!
4r	.	4r	.	4r	.	4r	.
4G\	O-	8B\L	o-	4g\	o-	8dd\L	o-
.	.	8c\J	.	.	.	8ee\J	.
=32	=32	=32	=32	=32	=32	=32	=32
4G\	-san-	2d\	-san-	2g\	-san-	2ff\	-san-
4A\	.	.	.	.	.	.	.
4B\	.	2B\	-na	2g\	-na	2dd\	-na
4G\	-na	.	.	.	.	.	.
!	!	!	!	!	!	!LO:LB:g=original	!
=33	=33	=33	=33	=33	=33	=33	=33
4c\	in	2G/	in	4g\	in	4ee\	in
4G\	.	.	.	4f\	.	4dd\	.
4E\	.	2G/	ex-	4e\	.	4cc\	.
4D\	ex-	.	.	4f\	ex-	4dd\	ex
=34	=34	=34	=34	=34	=34	=34	=34
4C/	-cel-	1G	-cel-	2e\	-cel-	2cc\	cel-
4E\	.	.	.	.	.	.	.
4G\	.	.	.	2d\	.	2b\	.
4GG/	.	.	.	.	.	.	.
=35	=35	=35	=35	=35	=35	=35	=35
2C/	-sis.	1G	-sis.	2e\	-sis.	2cc\	-sis.
2r	.	.	.	2r	.	2r	.
==	==	==	==	==	==	==	==
*-	*-	*-	*-	*-	*-	*-	*-
!!!system-decoration: [(s1,s2,s3,s4)]
!!!ENC: Filip Voros
!!!END: 2023-11-08
!!!EED: Jan Barakat
!!!EEV: 2023-12-01
